X:1
T:I Must Tell Jesus
T:Elisha Albright Hoffman, 1893
T:I Must Tell Jesus
T:Public Domain
T:Public Domain
C:Elisha Albright Hoffman, 1893
Z:Public Domain
%%score ( 1 2 ) 3
L:1/8
M:9/8
K:Eb
V:1 treble 
V:2 treble 
V:3 bass 
V:1
 E[EF][EG] | [EB]3 [EB]3 E[EF][EG] | [DF]3 E3 E[EF][EG] | [EB]3 [EB]3 | E[EF][EG] | %5
w: 1.~I must tell|sus all of my tri-|als; I can- not bear|dens a-|lone; In my|
w: 2.~I must tell|sus all of my trou-|bles; He is a kind,|sion- ate|friend; If I|
w: 3.~Tempt- ed and|I need a great Sav-|ior; One Who can help|dens to|bear; I must|
w: 4.~O how the|to e- vil al- lures|me! O how my heart|ed to|sin! I must|
 [DF]6 E[EF][EG] | [EB]3 [EB]3 E[EF][EG] | [DF]3 E3 | [Ee][Ee][Ee] | [EB]3 [EG]3 E[EG][DF] | E6 || %11
w: tress He kind- ly|help me; He ev- er|loves and|for His own.|||
w: ask Him, He will|li- ver, Make of my|trou- bles|ly an end.|||
w: Je- sus, I must|Je- sus; He all my|cares and|rows will share.|||
w: Je- sus, and He|help me O- ver the|world the|tory to win.|||
"^Refrain" [Ge][Ge][Ge] | [Ge]3 [GB]3 [Be][Be][Be] | [ce]3 [Ac]3 A[AB]c | %14
w: |||
w: |||
w: |||
w: |||
 [GB]3 [GB]3 [FB][FA][EG] | [DF]6 E[EF][EG] | [EB]3 [EB]3 E[EF][EG] | [DF]3 E3 [Ee][Ee][Ee] | %18
w: ||||
w: ||||
w: ||||
w: ||||
 [EB]3 [EG]3 E[EG][DF] | E6 z |] %20
w: ||
w: ||
w: ||
w: ||
V:2
 E x2 | x9 | x3 E3 E x2 | x6 | E x2 | x6 E x2 | x9 | x3 E3 | x3 | x6 E x2 | E6 || x3 | x9 | %13
w: Je-||these bur-||dis-|will||cares||||||
w: Je-||com- pas-||but|de-||quick-||||||
w: tried,||my bur-||tell|tell||sor-||||||
w: world||is tempt-||tell|will||vic-||||||
 x6 AA x | x9 | x6 E x2 | x6 E x2 | x3 E3 x3 | x9 | E6 x |] %20
w: |||||||
w: |||||||
w: |||||||
w: |||||||
V:3
 [E,G,][E,A,][E,B,] | [E,G,]3 [E,G,]3 [E,G,][E,A,][E,B,] | [B,,A,]3 [E,G,]3 [E,G,][E,A,][E,B,] | %3
w: ~ ~ ~|~ ~ ~ ~ ~|~ ~ ~ ~ ~|
 [E,G,]3 [E,G,]3 | [E,G,][E,A,][E,B,] | [B,,B,]6 [E,G,][E,A,][E,B,] | %6
w: ~ ~|~ ~ ~|~ ~ ~ ~|
 [E,G,]3 [E,G,]3 [E,G,][E,A,][E,B,] | [B,,A,]3 [C,G,]3 | [_C,^F,][C,F,][C,F,] | %9
w: ~ ~ ~ ~ ~|~ ~|~ ~ ~|
 [B,,G,]3 [B,,B,]3 [B,,G,][B,,B,][B,,A,] | [E,G,]6 || [E,B,][E,B,][E,B,] | %12
w: ~ ~ ~ ~ ~|~|I must tell|
 [E,B,]3 [E,E]3 [G,E][G,E][G,E] | [A,E]3 [A,E]3 [A,C][A,D][A,E] | %14
w: Je- sus! I must tell|Je- sus! I can- not|
 [E,E]3 [E,B,]3 [D,B,][D,B,][E,B,] | [B,,B,]6 [E,G,][E,A,][E,B,] | %16
w: bear my bur- dens a-|lone; I must tell|
 [E,G,]3 [E,G,]3 [E,G,][E,A,][E,B,] | [B,,A,]3 [C,G,]3 [_C,^F,][C,F,][C,F,] | %18
w: Je- sus! I must tell|Je- sus! Je- sus can|
 [B,,G,]3 [B,,B,]3 [B,,G,][B,,B,][B,,A,] | [E,G,]6 z |] %20
w: help me, Je- sus a-|lone.|

